dist/svg/contact.svg

<!-- Generated by Trend Micro Style Portal -->
<svg version="1.1" xmlns="http://www.w3.org/2000/svg" width="16" height="16" viewBox="0 0 16 16">
  <title>contact</title>
  <path fill="rgb(34,34,34)" d="M15 2h-14c-0.552 0-1 0.448-1 1v0 10c0 0.552 0.448 1 1 1v0h1c0-0.552 0.448-1 1-1s1 0.448 1 1v0h8c0-0.552 0.448-1 1-1s1 0.448 1 1v0h1c0.552 0 1-0.448 1-1v0-10c0-0.552-0.448-1-1-1v0zM7.060 11h-4.12c-1.7 0-0.68-1.5-0.2-2v0c0.432-0.432 0.976-0.753 1.585-0.914l0.025-0.006v-0.23c-0.507-0.248-0.85-0.76-0.85-1.352 0-0.828 0.672-1.5 1.5-1.5s1.5 0.672 1.5 1.5c0 0.592-0.343 1.104-0.841 1.348l-0.009 0.004v0.23c0.634 0.166 1.178 0.487 1.61 0.92l0 0c0.47 0.5 1.5 2-0.2 2zM14 10h-5v-1h5zM14 8h-5v-1h5zM14 6h-5v-1h5z"></path>
</svg>

<svg width="16" height="16" viewBox="0 0 16 16" fill="rgb(34, 34, 34)" xmlns="http://www.w3.org/2000/svg"><title>contact</title><path d="M15 2H1C0.448 2 0 2.448 0 3V13C0 13.552 0.448 14 1 14H2C2 13.448 2.448 13 3 13C3.552 13 4 13.448 4 14H12C12 13.448 12.448 13 13 13C13.552 13 14 13.448 14 14H15C15.552 14 16 13.552 16 13V3C16 2.448 15.552 2 15 2ZM7.06 11H2.94C1.24 11 2.26 9.5 2.74 9C3.172 8.568 3.716 8.247 4.325 8.086L4.35 8.08V7.85C3.843 7.602 3.5 7.09 3.5 6.498C3.5 5.67 4.172 4.998 5 4.998C5.828 4.998 6.5 5.67 6.5 6.498C6.5 7.09 6.157 7.602 5.659 7.846L5.65 7.85V8.08C6.284 8.246 6.828 8.567 7.26 9C7.73 9.5 8.76 11 7.06 11ZM14 10H9V9H14V10ZM14 8H9V7H14V8ZM14 6H9V5H14V6Z" fill="rgb(34, 34, 34)" fill-opacity="1.00"/></svg>
